picto/tracks-92-fr-small-framed.svg

<svg class="color-immutable" width="30" height="30" viewBox="0 0 30 30" fill="none" xmlns="http://www.w3.org/2000/svg"><path d="M30 0H0V30H30V0Z" fill="#2D327D"/><path d="M25.5 3C26.325 3 27 3.675 27 4.5V25.5C27 26.325 26.325 27 25.5 27H4.5C3.675 27 3 26.325 3 25.5V4.5C3 3.675 3.675 3 4.5 3H25.5ZM25.5 2.625H4.5C3.46613 2.625 2.625 3.46613 2.625 4.5V25.5C2.625 26.5339 3.46613 27.375 4.5 27.375H25.5C26.5339 27.375 27.375 26.5339 27.375 25.5V4.5C27.375 3.46613 26.5339 2.625 25.5 2.625Z" fill="white"/><path d="M6.36988 21.1776H8.49246C8.66668 22.0493 9.17173 22.485 10.0075 22.485C10.4791 22.485 10.8623 22.3248 11.1572 22.0043C11.452 21.684 11.6788 21.1853 11.8378 20.5086C11.9404 20.078 12.0147 19.5884 12.0609 19.0397C11.7173 19.5218 11.3649 19.8639 11.0035 20.0663C10.642 20.269 10.2023 20.3702 9.68458 20.3702C8.85906 20.3702 8.14131 20.1293 7.53126 19.6472C7.10563 19.3088 6.77376 18.8705 6.53533 18.3322C6.29691 17.7938 6.17773 17.2094 6.17773 16.5788C6.17773 15.3125 6.61093 14.287 7.47741 13.5026C8.22073 12.8258 9.11286 12.4874 10.1537 12.4874C10.7945 12.4874 11.3867 12.6311 11.9302 12.9181C12.4736 13.2053 12.93 13.6129 13.2991 14.1409C13.9502 15.0791 14.2758 16.3969 14.2758 18.0938C14.2758 19.6627 13.9886 21.0008 13.4145 22.1082C12.6659 23.549 11.5329 24.2692 10.0153 24.2692C9.00523 24.2692 8.17086 23.9898 7.51213 23.4309C6.85303 22.8722 6.47241 22.1211 6.36988 21.1776ZM10.1074 14.387C9.62548 14.387 9.21786 14.5844 8.88463 14.9792C8.55133 15.3791 8.38476 15.8867 8.38476 16.5019C8.38476 16.9993 8.50513 17.4401 8.74618 17.8247C9.07423 18.3528 9.53563 18.6168 10.1305 18.6168C10.6688 18.6168 11.0995 18.4015 11.4225 17.9708C11.725 17.5659 11.8762 17.084 11.8762 16.5251C11.8762 15.9356 11.7198 15.4357 11.4071 15.0254C11.0789 14.5997 10.6458 14.387 10.1074 14.387Z" fill="white"/><path d="M23.8225 22.0005V24H15.7245C15.7245 23.39 15.8231 22.808 16.0206 22.2543C16.2178 21.7006 16.496 21.2238 16.855 20.8239C17.1318 20.5163 17.456 20.2163 17.8278 19.9241C18.1995 19.6319 18.9391 19.0962 20.0465 18.3168C20.5849 17.9426 20.9617 17.5939 21.177 17.2709C21.3923 16.948 21.5 16.5737 21.5 16.1481C21.5 15.656 21.355 15.2573 21.0655 14.9522C20.7758 14.6473 20.3951 14.4947 19.9234 14.4947C18.7647 14.4947 18.1674 15.3279 18.1315 16.9941H15.9706C15.9706 16.8864 15.9706 16.8045 15.9706 16.748C15.9706 15.3843 16.3525 14.3282 17.1164 13.5795C17.8597 12.8516 18.8211 12.4874 20.0003 12.4874C21.0462 12.4874 21.9203 12.7848 22.6228 13.3796C23.3866 14.0255 23.7686 14.8946 23.7686 15.9866C23.7686 16.9403 23.4635 17.7606 22.8535 18.4475C22.6535 18.6732 22.4663 18.854 22.2921 18.9897C22.1177 19.1256 21.6589 19.4525 20.9155 19.9703C20.208 20.4624 19.7016 20.8393 19.3966 21.1007C19.0916 21.3622 18.8083 21.6621 18.5469 22.0005H23.8225Z" fill="white"/><path d="M8.03591 6L7.28839 8.24865H6.73009L5.99329 6H6.50704L7.01306 7.6842L7.52681 6H8.03591Z" fill="white"/><path d="M8.87413 6.5229C9.11818 6.5229 9.3176 6.6039 9.47248 6.7659C9.62525 6.92588 9.70168 7.13918 9.70168 7.40573C9.70168 7.68158 9.62015 7.90148 9.4571 8.06558C9.30433 8.21835 9.10543 8.29478 8.86033 8.29478C8.59888 8.29478 8.39068 8.20965 8.23588 8.03948C8.0882 7.87748 8.0144 7.66725 8.0144 7.40888C8.0144 7.15455 8.08618 6.94793 8.22973 6.789C8.38865 6.61163 8.60345 6.5229 8.87413 6.5229ZM8.8511 6.87053C8.7332 6.87053 8.63938 6.91823 8.56963 7.01355C8.4989 7.10993 8.4635 7.2417 8.4635 7.40888C8.4635 7.5822 8.49838 7.71495 8.56813 7.80728C8.6399 7.90058 8.73785 7.94723 8.8619 7.94723C8.97778 7.94723 9.06958 7.9047 9.13723 7.81958C9.2141 7.72523 9.25258 7.58835 9.25258 7.40888C9.25258 7.24073 9.21875 7.11 9.15103 7.0167C9.0803 6.91928 8.98033 6.87053 8.8511 6.87053Z" fill="white"/><path d="M10.4491 6V6.40147H10.0031V6H10.4491ZM10.4491 6.57217V8.24873H10.0031V6.57217H10.4491Z" fill="white"/><path d="M12.321 7.72575C12.2975 7.8201 12.2549 7.90875 12.1934 7.99185C12.0457 8.19382 11.8334 8.29485 11.5566 8.29485C11.3064 8.29485 11.1059 8.21587 10.9552 8.058C10.8814 7.98112 10.825 7.88827 10.786 7.7796C10.7439 7.66372 10.7229 7.54275 10.7229 7.4166C10.7229 7.17255 10.7932 6.9675 10.9337 6.80137C11.0906 6.61575 11.2936 6.52297 11.5427 6.52297C11.7437 6.52297 11.915 6.585 12.0565 6.70905C12.158 6.79822 12.2318 6.90825 12.278 7.03897C12.3241 7.1697 12.3472 7.33402 12.3472 7.53195H11.1767C11.1809 7.614 11.1937 7.68217 11.2152 7.73655C11.2757 7.88317 11.3906 7.95652 11.5598 7.95652C11.6428 7.95652 11.7105 7.9383 11.7628 7.90192C11.8151 7.86555 11.8581 7.80682 11.892 7.72582H12.321V7.72575ZM11.8919 7.23202C11.8838 7.15102 11.8653 7.08382 11.8366 7.0305C11.8079 6.97822 11.7671 6.93667 11.7143 6.90592C11.6615 6.87517 11.6039 6.8598 11.5413 6.8598C11.4419 6.8598 11.3598 6.8931 11.2952 6.95977C11.2307 7.02645 11.1922 7.1172 11.1799 7.23202H11.8919Z" fill="white"/></svg>

<svg class="color-immutable" width="30" height="30" viewBox="0 0 30 30" fill="none" xmlns="http://www.w3.org/2000/svg"><g clip-path="url(#a)"><path d="M30 0H0v30h30V0Z" fill="#2D327D"/><path d="M25.5 3c.825 0 1.5.675 1.5 1.5v21c0 .825-.675 1.5-1.5 1.5h-21c-.825 0-1.5-.675-1.5-1.5v-21C3 3.675 3.675 3 4.5 3h21Zm0-.375h-21A1.877 1.877 0 0 0 2.625 4.5v21c0 1.034.841 1.875 1.875 1.875h21a1.877 1.877 0 0 0 1.875-1.875v-21A1.877 1.877 0 0 0 25.5 2.625Z" fill="#fff"/><path d="M6.37 21.178h2.122c.175.871.68 1.307 1.515 1.307.472 0 .855-.16 1.15-.48.295-.321.522-.82.68-1.496.103-.431.178-.92.224-1.47-.344.483-.696.825-1.057 1.027-.362.203-.802.304-1.32.304-.825 0-1.543-.24-2.153-.723a3.41 3.41 0 0 1-.996-1.315 4.281 4.281 0 0 1-.357-1.753c0-1.267.433-2.292 1.3-3.076.743-.677 1.635-1.016 2.676-1.016.64 0 1.233.144 1.776.431.544.287 1 .695 1.37 1.223.65.938.976 2.256.976 3.953 0 1.569-.287 2.907-.861 4.014-.75 1.441-1.882 2.161-3.4 2.161-1.01 0-1.844-.28-2.503-.838-.659-.559-1.04-1.31-1.142-2.253Zm3.737-6.791c-.482 0-.89.197-1.222.592-.334.4-.5.908-.5 1.523 0 .497.12.938.361 1.323.328.528.79.792 1.384.792.539 0 .97-.216 1.292-.646.303-.405.454-.887.454-1.446 0-.59-.156-1.09-.469-1.5a1.561 1.561 0 0 0-1.3-.638ZM23.823 22v2h-8.098c0-.61.098-1.192.296-1.746.197-.553.475-1.03.834-1.43.277-.308.601-.608.973-.9.372-.292 1.111-.828 2.219-1.607.538-.374.915-.723 1.13-1.046.215-.323.323-.697.323-1.123 0-.492-.145-.89-.434-1.196-.29-.305-.67-.457-1.143-.457-1.158 0-1.756.833-1.791 2.5H15.97v-.247c0-1.364.381-2.42 1.145-3.169.744-.727 1.705-1.092 2.884-1.092 1.046 0 1.92.298 2.623.893.764.645 1.146 1.515 1.146 2.607 0 .953-.305 1.774-.915 2.46a4.32 4.32 0 0 1-.562.543c-.174.136-.633.463-1.377.98-.707.492-1.213.87-1.518 1.13a6.056 6.056 0 0 0-.85.9h5.276ZM8.036 6l-.748 2.249H6.73L5.993 6h.514l.506 1.684L7.527 6h.509ZM8.874 6.523c.244 0 .444.08.598.243.153.16.23.373.23.64 0 .276-.082.495-.245.66a.807.807 0 0 1-.597.229c-.261 0-.47-.085-.624-.256-.148-.162-.222-.372-.222-.63 0-.254.072-.461.216-.62.159-.177.373-.266.644-.266Zm-.023.348a.331.331 0 0 0-.281.143.656.656 0 0 0-.107.395c0 .173.035.306.105.398a.35.35 0 0 0 .294.14.333.333 0 0 0 .275-.127c.077-.095.116-.232.116-.411 0-.168-.034-.299-.102-.392a.349.349 0 0 0-.3-.146ZM10.45 6v.401h-.447V6h.446Zm0 .572V8.25h-.447V6.572h.446ZM12.321 7.726a.75.75 0 0 1-.128.266c-.147.202-.36.303-.636.303-.25 0-.451-.08-.602-.237a.773.773 0 0 1-.169-.278 1.055 1.055 0 0 1-.063-.363c0-.244.07-.45.21-.616a.76.76 0 0 1 .61-.278c.2 0 .372.062.514.186.101.09.175.2.221.33.046.13.07.295.07.493h-1.171c.004.082.017.15.038.205.06.146.176.22.345.22.083 0 .15-.019.203-.055a.39.39 0 0 0 .129-.176h.429Zm-.43-.494a.537.537 0 0 0-.054-.202.337.337 0 0 0-.295-.17c-.1 0-.182.033-.247.1a.447.447 0 0 0-.115.272h.712Z" fill="#fff"/></g><defs><clipPath id="a"><path fill="#fff" d="M0 0h30v30H0z"/></clipPath></defs></svg>
